X: 10
T: Out On The Ocean
R: jig
M: 6/8
L: 1/8
K: Gmaj
|: G2 A BAB | Bgg B2 A | GED G2 A | BAA AGE |
GAc B2 A | Bgg B2 A | GED GAc |[1 BGG GED :|[2 BGF GBd ||
|: e2 g e2 d | efg edB | d2 e d2 B | ded dBA |
B2 B Bcd | efg B2 A | GED G2 c |[1 BGG GBd :|[2 BGF G3 |]


Tune 108	Setting 25910

